X:61
%%vocalfont Baskerville10Pro 12
%%score 1 2
%%pagewidth 8in
T:Who list to lead a soldier's life
M:6/8
L:1/8
K:A
V:1 clef-treble
V:2 clef-bass octave=-1
V:1 
G|(c>d)e (c>B)A&E6|[DB]2G[CE]2A|c>de A>Bc&E3E3|
w:Who list* to lead* a sol-dier's life.||
V:2
z|[A,A]6|[G,E]3[A,A]3|[A,A]3[CA]3|
V:1
[EB]3-[EB]2B|c>de c>BA&E6|[DB]2G E>DC&x3C3|D>EF E>FG&B,2x D2x|[CA]3-[CA]2||
V:2
[EA]3[EA]2z|[A,A]6|[G,E]3[A,A]3|[B,F]3G>AB&x3E3|A3-A2||

